X: 37914
T: South Wind, The
R: waltz
M: 3/4
K: Gmajor
|:dc|"G"B2A2 G2|B2c2 d2|"D"A3BA2|A4 dc|
"G"B2A2 G2|"C"E2D2 E2|"G"G3A G2|G4:|
|:d2|"G"g3a g2|"C"g2f2 e2|"G"d3e d2|d4 c2|
[1"G"B3A G2|B2c2 d2|"D"A3B A2|A4:|
[2"Em"B3A G2|"D"Ac3 F2|"G"G3A G2|G4||

